packages/core/src/svgs/networks/branded/dogechain.svg

<svg width="24" height="24" viewBox="0 0 24 24" fill="none" xmlns="http://www.w3.org/2000/svg">
<path d="M12.0004 2.18762C6.58143 2.18762 2.18848 6.58057 2.18848 11.9996C2.18848 17.4186 6.58143 21.8115 12.0004 21.8115C17.4194 21.8115 21.8124 17.4186 21.8124 11.9996C21.8124 6.58057 17.4194 2.18762 12.0004 2.18762Z" fill="url(#paint0_linear_166_862)"/>
<path fill-rule="evenodd" clip-rule="evenodd" d="M12 21.6239C17.3151 21.6239 21.6239 17.3151 21.6239 12C21.6239 6.68486 17.3151 2.37608 12 2.37608C6.68486 2.37608 2.37609 6.68486 2.37609 12C2.37609 17.3151 6.68486 21.6239 12 21.6239ZM22 12C22 17.5228 17.5228 22 12 22C6.47716 22 2 17.5228 2 12C2 6.47715 6.47716 2 12 2C17.5228 2 22 6.47715 22 12Z" fill="black"/>
<path d="M4.33661 11.3586L3.83346 11.8618L3.33032 11.3586L3.83346 10.8555L4.33661 11.3586Z" fill="black"/>
<path d="M20.6592 11.2428L20.156 11.7459L19.6528 11.2428L20.156 10.7396L20.6592 11.2428Z" fill="black"/>
<path d="M3.03027 13.0422L5.01997 12.5461L5.37432 13.9674L5.09008 14.0382L5.16094 14.3225L4.8767 14.3934L4.94757 14.6776L4.09485 14.8902L4.02397 14.6059L3.73973 14.6768L3.66886 14.3926L3.38462 14.4635L3.03027 13.0422ZM3.45626 13.5398L3.598 14.1083L3.88224 14.0375L3.95311 14.3217L4.80583 14.1091L4.73496 13.8249L5.0192 13.754L4.87746 13.1855L3.45626 13.5398Z" fill="black"/>
<path d="M3.98877 16.1285L4.23445 15.969L4.07491 15.7233L5.30332 14.9255L5.46287 15.1713L5.70855 15.0117L6.5063 16.2401L6.2606 16.3996L6.42017 16.6454L5.19174 17.4431L5.03219 17.1975L4.78651 17.357L3.98877 16.1285ZM4.394 16.2146L4.87265 16.9517L6.10106 16.154L5.62241 15.4169L4.394 16.2146Z" fill="black"/>
<path d="M5.97139 18.6433L6.15573 18.4157L5.92808 18.2313L6.11243 18.0036L5.88477 17.8193L6.43785 17.1363L6.6655 17.3207L6.84984 17.0931L7.07752 17.2774L7.26187 17.0497L8.40017 17.9714L8.21583 18.1992L7.30517 17.4617L7.12082 17.6893L6.89318 17.505L6.34007 18.1881L6.56776 18.3724L6.38341 18.6L6.8387 18.9688L7.20743 18.5135L6.97978 18.3291L7.16413 18.1014L7.8471 18.6545L7.10969 19.565L5.97139 18.6433Z" fill="black"/>
<path d="M8.16431 20.1015L8.86565 18.1746L10.7926 18.8759L10.6924 19.1512L9.316 18.6502L9.11561 19.2007L10.2167 19.6015L10.1165 19.8768L9.01542 19.476L8.81504 20.0266L10.1914 20.5275L10.0912 20.8028L8.16431 20.1015Z" fill="black"/>
<path d="M11.4983 20.9433V20.6505H11.2053V20.3575H10.9124V19.4787H11.2053V19.1857H11.4983V18.8927H12.67V19.1857H12.963V19.4787H12.3771V19.1857H11.7912V19.4787H11.4983V20.3575H11.7912V20.6505H12.3771V20.3575H12.963V20.6505H12.67V20.9433H11.4983Z" fill="black"/>
<path d="M14.0709 20.7362L13.3594 18.813L13.9088 18.6098L14.2138 19.4341L15.038 19.1291L14.733 18.3048L15.2825 18.1016L15.9941 20.0247L15.4446 20.228L15.1396 19.4038L14.3154 19.7088L14.6203 20.533L14.0709 20.7362Z" fill="black"/>
<path d="M16.899 19.5131L15.9773 18.3749L16.2049 18.1905L16.0206 17.9628L16.2483 17.7785L16.0639 17.5509L16.7469 16.9978L16.9313 17.2254L17.1589 17.0411L17.3433 17.2688L17.5709 17.0844L18.4927 18.2227L18.0374 18.5914L17.6687 18.1361L16.9856 18.6892L17.3544 19.1445L16.899 19.5131ZM16.8013 18.4614L17.4844 17.9085L17.1156 17.4531L16.888 17.6374L16.7035 17.4098L16.4759 17.5942L16.6602 17.8218L16.4326 18.0062L16.8013 18.4614Z" fill="black"/>
<path d="M19.0818 17.4937L18.8362 17.3342L19.1552 16.8428L17.9268 16.0451L17.6077 16.5364L17.3621 16.3769L18.3193 14.9027L18.5651 15.0623L18.2459 15.5537L19.4743 16.3514L19.7934 15.8601L20.0392 16.0196L19.0818 17.4937Z" fill="black"/>
<path d="M20.4352 15.0509L18.4456 14.5548L18.5872 13.9863L18.8715 14.0571L18.9424 13.7728L19.2266 13.8437L19.2974 13.5595L19.5817 13.6304L19.6526 13.3462L18.7998 13.1335L18.9416 12.5651L20.9313 13.0611L20.7895 13.6296L20.2211 13.4879L20.1502 13.7721L19.8659 13.7012L19.7951 13.9855L19.5109 13.9146L19.44 14.1989L20.577 14.4824L20.4352 15.0509Z" fill="black"/>
<path d="M13.1613 5.8142C13.1032 5.87586 13.0541 5.92892 13.0168 5.96977C12.5846 5.87545 12.0628 5.82664 11.6243 5.82664C11.2931 5.82664 10.9682 5.85446 10.6518 5.90794C10.1758 5.76564 9.80082 5.6301 9.34453 5.15057C9.30862 5.11282 9.27027 5.07184 9.22978 5.0286C8.99578 4.77872 8.69086 4.45306 8.3777 4.23652C8.19292 4.10878 7.98389 4.00311 7.76573 3.98304C7.53435 3.96175 7.31277 4.03887 7.1267 4.23641C6.79822 4.58516 6.5077 5.27763 6.33835 6.16586C6.16965 7.05062 6.11545 8.15869 6.2776 9.38432C5.98924 10.0728 5.83008 10.8285 5.83008 11.6209C5.83008 12.8044 6.18513 13.9056 6.79452 14.823C7.71873 16.7946 9.7215 18.1607 12.0437 18.1607C14.7514 18.1607 17.0248 16.3036 17.6607 13.7939C18.0137 13.1552 18.2113 12.444 18.2113 11.6941C18.2113 10.1678 17.3948 8.80966 16.1226 7.88654C15.7558 7.18237 15.7396 6.68845 15.7219 6.14965C15.7186 6.04938 15.7152 5.94754 15.7094 5.8425C15.7037 5.73528 15.7009 5.64163 15.6981 5.55068C15.6961 5.48381 15.694 5.41839 15.691 5.35013C15.6844 5.20207 15.6727 5.05565 15.639 4.92808C15.6046 4.79778 15.5424 4.66846 15.421 4.57549C15.3004 4.48307 15.1491 4.44782 14.9796 4.44782C14.8693 4.44782 14.7581 4.48687 14.6597 4.53433C14.5579 4.58343 14.451 4.65087 14.3445 4.72709C14.1318 4.87962 13.9039 5.07976 13.6973 5.27538C13.4898 5.47182 13.2995 5.66773 13.1613 5.8142Z" fill="url(#paint1_linear_166_862)" stroke="black"/>
<path fill-rule="evenodd" clip-rule="evenodd" d="M6.24683 13.1529C6.40741 13.7177 6.65459 14.2462 6.9731 14.723C7.86225 16.6332 9.79884 17.9573 12.0447 17.9573C14.6663 17.9573 16.8665 16.153 17.4711 13.7185C17.8165 13.1019 18.009 12.4163 18.009 11.694C18.009 10.9707 17.816 10.2843 17.4698 9.66716C17.2553 9.59491 17.07 9.59459 16.924 9.67581C16.6987 9.80113 16.5913 10.1066 16.5903 10.5436C16.5898 10.8203 16.3046 11.0387 16.0398 10.9586C15.2688 10.7256 14.5213 10.7564 13.8954 11.1043C13.7378 11.1919 13.5934 11.2966 13.4624 11.4166C12.863 11.9653 11.5049 12.3196 10.8741 11.8075C9.65474 10.8175 8.34705 10.4524 7.39739 10.9804C6.7071 11.3642 6.32322 12.1546 6.24683 13.1529Z" fill="white"/>
<path fill-rule="evenodd" clip-rule="evenodd" d="M11.6733 16.6988C9.90283 16.8619 8.12795 15.5782 6.88721 14.5249C7.73193 16.5407 9.72364 17.9568 12.0461 17.9568C14.6615 17.9568 16.8575 16.161 17.4683 13.735L17.3517 13.9974C17.2339 14.2628 16.9034 14.3551 16.6651 14.1893C16.6289 14.3833 16.5511 14.5654 16.4398 14.7286C16.128 15.1233 15.7225 15.3804 15.2202 15.4735C15.1065 15.4925 14.989 15.5026 14.8687 15.5026C14.5377 15.5026 14.2272 15.4266 13.9597 15.2939C14.0234 15.5052 13.4439 16.5358 11.6733 16.6988Z" fill="#F7ECDF"/>
<path d="M7.61291 7.9864C7.29304 6.93896 7.37489 5.65663 7.61291 4.9165C8.02968 6.31143 9.03921 7.13247 9.03921 7.13247C8.61817 7.2239 8.0167 7.57783 7.61291 7.9864Z" fill="black"/>
<path d="M14.1618 11.6898C14.4783 11.0147 16.338 10.8941 16.6311 11.6898C16.7942 12.1324 16.1372 13.1392 15.6993 13.2041C15.0703 13.2972 13.8124 12.4353 14.1618 11.6898Z" fill="black"/>
<path opacity="0.5" d="M12.2857 8.4512C12.033 8.64745 11.093 8.66401 10.9988 8.37674C10.9046 8.08947 11.5109 7.47115 11.9525 7.66667C12.3206 7.8297 12.6123 8.19746 12.2857 8.4512Z" fill="white"/>
<path opacity="0.5" d="M15.2258 8.07146C15.0505 8.33425 14.5794 8.30506 14.392 8.07146C14.2047 7.83787 14.2336 7.39416 14.7222 7.4303C15.1295 7.46042 15.3436 7.89484 15.2258 8.07146Z" fill="white"/>
<path d="M13.8604 15.4766C13.7554 15.3832 13.8869 15.2632 14.0148 15.3215C14.269 15.4375 14.559 15.5032 14.8669 15.5032C15.6583 15.5032 16.3317 15.0692 16.5819 14.4633C16.6046 14.4085 16.6863 14.414 16.6863 14.4733C16.6863 15.2653 15.9484 15.9073 15.0382 15.9073C14.5768 15.9073 14.1596 15.7424 13.8604 15.4766Z" fill="black"/>
<path fill-rule="evenodd" clip-rule="evenodd" d="M18.8168 8.08032L7.24951 9.44864L7.31521 10.0039L9.0734 9.7959L9.13906 10.3511L9.6943 10.2854L9.75995 10.8406L10.3153 10.7749L10.3809 11.3302L12.2317 11.1113L12.166 10.5561L12.7212 10.4904L12.6555 9.93513L13.2108 9.86943L13.1451 9.31423L18.8825 8.63556L18.8168 8.08032ZM14.2555 9.18288L18.3273 8.70122L18.393 9.25646L14.3212 9.73812L14.2555 9.18288ZM17.8377 9.32215L14.8764 9.67243L14.9421 10.2277L15.4977 10.162L15.5631 10.7173L17.4139 10.4983L17.3482 9.94309L17.9034 9.8774L17.8377 9.32215Z" fill="black"/>
<path d="M17.2158 8.8323L17.771 8.7666L17.8367 9.32184L17.2815 9.3875L17.2158 8.8323Z" fill="white"/>
<path d="M16.728 9.45274L17.2832 9.38708L17.3489 9.94232L16.7937 10.008L16.728 9.45274Z" fill="white"/>
<path d="M12.0339 9.44472L12.5892 9.37903L12.6548 9.93427L12.0996 9.99992L12.0339 9.44472Z" fill="white"/>
<path d="M11.5449 10.0657L12.1001 10L12.1658 10.5552L11.6106 10.6209L11.5449 10.0657Z" fill="white"/>
<path d="M17.0981 12.0874C17.557 12.6923 17.0543 13.788 16.183 13.7719C15.9931 13.7684 15.7991 13.8392 15.669 13.9774C14.981 14.7082 13.5312 14.8 13.0822 13.7893C13.037 13.6874 12.9647 13.5966 12.8649 13.5468L12.5088 13.3687" stroke="black" stroke-linecap="round"/>
<path d="M14.6997 14.5985C15.821 15.0488 16.4814 14.1823 16.4236 13.8575L15.6451 13.9465L14.6997 14.5985Z" fill="black"/>
<defs>
<linearGradient id="paint0_linear_166_862" x1="12.0004" y1="21.9996" x2="12.0004" y2="1.99959" gradientUnits="userSpaceOnUse">
<stop stop-color="#7774F4"/>
<stop offset="0.714952" stop-color="#9157F9"/>
<stop offset="1" stop-color="#B133FF"/>
</linearGradient>
<linearGradient id="paint1_linear_166_862" x1="12.0207" y1="4.18286" x2="12.0207" y2="17.9574" gradientUnits="userSpaceOnUse">
<stop stop-color="#FBF476"/>
<stop offset="0.449777" stop-color="#FFA725"/>
<stop offset="1" stop-color="#FFA725"/>
</linearGradient>
</defs>
</svg>

<svg xmlns="http://www.w3.org/2000/svg" width="24" height="24" fill="none" viewBox="0 0 24 24">
    <path fill="url(#dogechain__a)" d="M12 2.188C6.581 2.188 2.188 6.58 2.188 12S6.581 21.81 12 21.81c5.42 0 9.812-4.392 9.812-9.811 0-5.42-4.393-9.812-9.812-9.812"/>
    <path fill="#000" fill-rule="evenodd" d="M12 21.624a9.624 9.624 0 1 0 0-19.248 9.624 9.624 0 0 0 0 19.248M22 12c0 5.523-4.477 10-10 10S2 17.523 2 12 6.477 2 12 2s10 4.477 10 10" clip-rule="evenodd"/>
    <path fill="#000" d="m4.337 11.359-.504.503-.503-.503.503-.504zm16.323-.116-.504.503-.503-.503.503-.503zM3.03 13.042l1.99-.496.354 1.421-.284.071.07.284-.283.071.07.285-.852.212-.071-.284-.284.07-.071-.283-.284.07zm.426.498.142.568.284-.07.071.284.853-.213-.071-.284.284-.071-.142-.569zm.533 2.588.245-.159-.16-.246 1.23-.798.159.246.246-.16.797 1.23-.245.159.16.245-1.23.798-.159-.245-.245.159zm.405.087.479.737 1.228-.798-.479-.737zm1.577 2.428.185-.227-.228-.185.184-.227-.227-.185.553-.683.228.185.184-.228.228.184.184-.227 1.138.921-.184.228-.91-.737-.185.227-.228-.184-.553.683.228.184-.185.228.456.369.368-.456-.227-.184.184-.228.683.553-.737.911zm2.193 1.459.702-1.927 1.927.7-.1.276-1.377-.5-.2.55 1.1.4-.1.276-1.1-.401-.201.55 1.376.502-.1.275zm3.334.841v-.293h-.293v-.292h-.293v-.88h.293v-.292h.293v-.293h1.172v.293h.293v.293h-.586v-.293h-.586v.293h-.293v.879h.293v.293h.586v-.293h.586v.293h-.293v.292zm2.572-.207-.71-1.923.549-.203.305.824.824-.305-.305-.824.55-.203.711 1.923-.55.203-.304-.824-.825.305.305.824zm2.829-1.223-.922-1.138.228-.184-.184-.228.227-.184-.184-.228.683-.553.184.227.228-.184.184.228.228-.185.922 1.139-.456.368-.368-.455-.683.553.368.456zm-.098-1.052.683-.552-.368-.456-.228.184-.185-.227-.227.184.184.228-.227.184zm2.281-.967-.246-.16.32-.491-1.23-.798-.318.491-.246-.16.957-1.473.246.16-.32.49 1.23.798.318-.49.246.159zm1.353-2.444-1.99-.495.142-.569.285.071.07-.284.285.07.07-.284.285.071.07-.284-.852-.213.142-.568 1.99.496-.142.569-.569-.142-.07.284-.285-.07-.07.284-.285-.071-.071.284 1.137.283z"/>
    <path fill="url(#dogechain__b)" stroke="#000" d="m13.161 5.814-.144.156a7 7 0 0 0-1.393-.143q-.496 0-.972.08c-.476-.141-.851-.277-1.307-.756l-.115-.122c-.234-.25-.54-.576-.852-.792-.185-.128-.394-.234-.612-.254a.76.76 0 0 0-.64.253c-.328.35-.618 1.042-.788 1.93-.168.885-.223 1.993-.06 3.218a5.8 5.8 0 0 0-.448 2.237c0 1.183.355 2.285.965 3.202a5.795 5.795 0 0 0 10.866-1.03c.353-.638.55-1.349.55-2.099 0-1.526-.816-2.884-2.088-3.807-.367-.705-.383-1.199-.401-1.737l-.013-.308c-.005-.107-.008-.2-.01-.291l-.008-.2a2 2 0 0 0-.052-.423.63.63 0 0 0-.218-.353.7.7 0 0 0-.441-.127.8.8 0 0 0-.32.086 2 2 0 0 0-.316.193c-.212.153-.44.353-.647.548-.207.197-.397.393-.536.54Z"/>
    <path fill="#fff" fill-rule="evenodd" d="M6.247 13.153c.16.565.408 1.093.726 1.57a5.592 5.592 0 0 0 10.498-1.005 4.1 4.1 0 0 0 .538-2.024 4.1 4.1 0 0 0-.54-2.027c-.214-.072-.399-.072-.545.009-.225.125-.333.43-.334.868 0 .276-.285.495-.55.415-.771-.233-1.519-.203-2.145.145a2.3 2.3 0 0 0-.433.313c-.599.548-1.957.903-2.588.39-1.22-.99-2.527-1.355-3.477-.827-.69.384-1.074 1.175-1.15 2.173" clip-rule="evenodd"/>
    <path fill="#F7ECDF" fill-rule="evenodd" d="M11.673 16.699c-1.77.163-3.545-1.12-4.786-2.174a5.593 5.593 0 0 0 10.581-.79l-.116.262a.462.462 0 0 1-.687.192 1.4 1.4 0 0 1-.225.54 1.98 1.98 0 0 1-1.571.774c-.331 0-.642-.076-.91-.21.064.212-.515 1.243-2.286 1.406" clip-rule="evenodd"/>
    <path fill="#000" d="M7.613 7.986c-.32-1.047-.238-2.33 0-3.07a4.9 4.9 0 0 0 1.426 2.216c-.42.092-1.022.446-1.426.854m6.549 3.704c.316-.675 2.176-.796 2.47 0 .162.442-.495 1.45-.933 1.514-.629.093-1.887-.769-1.537-1.514"/>
    <path fill="#fff" d="M12.286 8.451c-.253.196-1.193.213-1.287-.074-.094-.288.512-.906.954-.71.368.163.66.53.333.784m2.94-.38c-.176.263-.647.234-.834 0-.187-.233-.158-.677.33-.64.408.03.622.464.504.64" opacity=".5"/>
    <path fill="#000" d="M13.86 15.477c-.105-.094.027-.214.155-.155.254.116.544.181.852.181.791 0 1.465-.434 1.715-1.04.023-.054.104-.049.104.01 0 .792-.738 1.434-1.648 1.434-.461 0-.878-.165-1.178-.43"/>
    <path fill="#000" fill-rule="evenodd" d="M18.817 8.08 7.25 9.45l.065.555 1.758-.208.066.555.555-.066.066.556.555-.066.066.555 1.85-.219-.065-.555.555-.066-.066-.555.556-.066-.066-.555 5.738-.678zm-4.562 1.103 4.072-.482.066.555-4.072.482zm3.583.14-2.962.35.066.555.556-.066.065.555 1.85-.219-.065-.555.555-.066z" clip-rule="evenodd"/>
    <path fill="#fff" d="m17.216 8.832.555-.065.066.555-.555.066z"/>
    <path fill="#fff" d="m16.728 9.453.555-.066.066.555-.555.066zm-4.694-.008.555-.066.066.555L12.1 10zm-.489.621L12.1 10l.066.555-.555.066z"/>
    <path stroke="#000" stroke-linecap="round" d="M17.098 12.087c.459.605-.044 1.701-.915 1.685a.7.7 0 0 0-.514.205c-.688.731-2.138.823-2.587-.188a.48.48 0 0 0-.217-.242l-.356-.178"/>
    <path fill="#000" d="M14.7 14.599c1.121.45 1.781-.417 1.724-.742l-.779.09z"/>
    <defs>
        <linearGradient id="dogechain__a" x1="12" x2="12" y1="22" y2="2" gradientUnits="userSpaceOnUse">
            <stop stop-color="#7774F4"/>
            <stop offset=".715" stop-color="#9157F9"/>
            <stop offset="1" stop-color="#B133FF"/>
        </linearGradient>
        <linearGradient id="dogechain__b" x1="12.021" x2="12.021" y1="4.183" y2="17.957" gradientUnits="userSpaceOnUse">
            <stop stop-color="#FBF476"/>
            <stop offset=".45" stop-color="#FFA725"/>
            <stop offset="1" stop-color="#FFA725"/>
        </linearGradient>
    </defs>
</svg>
